src/pos-icons/book-search.svg

<svg height="24" viewBox="0 0 24 24" width="24" xmlns="http://www.w3.org/2000/svg"><path d="m15.5 12c2.5 0 4.5 2 4.5 4.5 0 .88-.25 1.71-.69 2.4l3.08 3.1-1.39 1.39-3.12-3.07c-.69.43-1.51.68-2.38.68-2.5 0-4.5-2-4.5-4.5s2-4.5 4.5-4.5m0 2a2.5 2.5 0 0 0 -2.5 2.5 2.5 2.5 0 0 0 2.5 2.5 2.5 2.5 0 0 0 2.5-2.5 2.5 2.5 0 0 0 -2.5-2.5m-9.5 8a2 2 0 0 1 -2-2v-16c0-1.11.9-2 2-2h1v7l2.5-1.5 2.5 1.5v-7h6a2 2 0 0 1 2 2v7.81c-1.17-1.12-2.75-1.81-4.5-1.81a6.5 6.5 0 0 0 -6.5 6.5c0 2.31 1.21 4.35 3.03 5.5z"/></svg>

<?xml version="1.0" encoding="UTF-8"?><!DOCTYPE svg PUBLIC "-//W3C//DTD SVG 1.1//EN" "http://www.w3.org/Graphics/SVG/1.1/DTD/svg11.dtd"><svg xmlns="http://www.w3.org/2000/svg" xmlns:xlink="http://www.w3.org/1999/xlink" version="1.1" id="mdi-book-search" width="24" height="24" viewBox="0 0 24 24"><path d="M15.5,12C18,12 20,14 20,16.5C20,17.38 19.75,18.21 19.31,18.9L22.39,22L21,23.39L17.88,20.32C17.19,20.75 16.37,21 15.5,21C13,21 11,19 11,16.5C11,14 13,12 15.5,12M15.5,14A2.5,2.5 0 0,0 13,16.5A2.5,2.5 0 0,0 15.5,19A2.5,2.5 0 0,0 18,16.5A2.5,2.5 0 0,0 15.5,14M6,22A2,2 0 0,1 4,20V4C4,2.89 4.9,2 6,2H7V9L9.5,7.5L12,9V2H18A2,2 0 0,1 20,4V11.81C18.83,10.69 17.25,10 15.5,10A6.5,6.5 0 0,0 9,16.5C9,18.81 10.21,20.85 12.03,22H6Z" /></svg>
